X:344
T:
R:polska
S:Efter »Florsen» i Burs.
O:Gotland, Burs
M:3/4
L:1/16
K:G
dcBc d2g2 d2B2|c3e d4 B4|c2ec B2dB A2cA|GFGB AGFE D4|
dcBc d2g2 d2B2|c3e d4 B4|c2ec B2dB Acec|BAGF F4 G4::
DEFG A2GA B2AB|c2Ac B2GB AGFE|DEFG A2GA B2AB|c2Ac B2GB A4|
dcBc d2g2 d2B2|c3e d4 B4|c2ec B2dB Acec|BAGF F4 G4:|

